public/logos/BP.svg

<?xml version="1.0" encoding="UTF-8"?>
<svg xmlns="http://www.w3.org/2000/svg" xmlns:xlink="http://www.w3.org/1999/xlink" width="176pt" height="34.43pt" viewBox="0 0 176 34.43" version="1.1">
<defs>
<clipPath id="clip1">
  <path d="M 29 24 L 44 24 L 44 34.429688 L 29 34.429688 Z M 29 24 "/>
</clipPath>
<clipPath id="clip2">
  <path d="M 44 24 L 48 24 L 48 34.429688 L 44 34.429688 Z M 44 24 "/>
</clipPath>
<clipPath id="clip3">
  <path d="M 50 24 L 62 24 L 62 34.429688 L 50 34.429688 Z M 50 24 "/>
</clipPath>
<clipPath id="clip4">
  <path d="M 67 24 L 78 24 L 78 34.429688 L 67 34.429688 Z M 67 24 "/>
</clipPath>
<clipPath id="clip5">
  <path d="M 79 23 L 93 23 L 93 34.429688 L 79 34.429688 Z M 79 23 "/>
</clipPath>
<clipPath id="clip6">
  <path d="M 93 24 L 105 24 L 105 34.429688 L 93 34.429688 Z M 93 24 "/>
</clipPath>
<clipPath id="clip7">
  <path d="M 105 23 L 117 23 L 117 34.429688 L 105 34.429688 Z M 105 23 "/>
</clipPath>
<clipPath id="clip8">
  <path d="M 117 24 L 136 24 L 136 34.429688 L 117 34.429688 Z M 117 24 "/>
</clipPath>
<clipPath id="clip9">
  <path d="M 134 24 L 149 24 L 149 34.429688 L 134 34.429688 Z M 134 24 "/>
</clipPath>
<clipPath id="clip10">
  <path d="M 149 24 L 162 24 L 162 34.429688 L 149 34.429688 Z M 149 24 "/>
</clipPath>
<clipPath id="clip11">
  <path d="M 162 24 L 176 24 L 176 34.429688 L 162 34.429688 Z M 162 24 "/>
</clipPath>
<clipPath id="clip12">
  <path d="M 4 14 L 27 14 L 27 34.429688 L 4 34.429688 Z M 4 14 "/>
</clipPath>
</defs>
<g id="surface1">
<g clip-path="url(#clip1)" clip-rule="nonzero">
<path style=" stroke:none;fill-rule:nonzero;fill:rgb(31.047058%,70.297241%,91.236877%);fill-opacity:1;" d="M 36.601562 25.980469 L 34.59375 30.058594 L 38.609375 30.058594 Z M 40.601562 34.175781 L 39.472656 31.867188 L 33.734375 31.867188 L 32.617188 34.175781 L 29.988281 34.175781 L 35.199219 24.003906 L 38.085938 24.003906 L 43.296875 34.175781 L 40.601562 34.175781 "/>
</g>
<g clip-path="url(#clip2)" clip-rule="nonzero">
<path style=" stroke:none;fill-rule:nonzero;fill:rgb(31.047058%,70.297241%,91.236877%);fill-opacity:1;" d="M 44.90625 34.175781 L 44.90625 24.003906 L 47.457031 24.003906 L 47.457031 34.175781 L 44.90625 34.175781 "/>
</g>
<g clip-path="url(#clip3)" clip-rule="nonzero">
<path style=" stroke:none;fill-rule:nonzero;fill:rgb(31.047058%,70.297241%,91.236877%);fill-opacity:1;" d="M 55.664062 28.617188 C 56.503906 28.617188 57.125 28.5 57.523438 28.269531 C 57.921875 28.035156 58.121094 27.667969 58.121094 27.164062 C 58.121094 26.660156 57.929688 26.300781 57.554688 26.082031 C 57.175781 25.863281 56.558594 25.753906 55.695312 25.753906 L 52.714844 25.753906 L 52.714844 28.617188 Z M 58.535156 34.175781 L 56.046875 30.371094 L 52.714844 30.371094 L 52.714844 34.175781 L 50.261719 34.175781 L 50.261719 24.003906 L 55.855469 24.003906 C 59.03125 24.003906 60.621094 25.0625 60.621094 27.179688 C 60.621094 27.863281 60.445312 28.433594 60.089844 28.886719 C 59.730469 29.34375 59.1875 29.699219 58.453125 29.957031 L 61.324219 34.175781 L 58.535156 34.175781 "/>
</g>
<g clip-path="url(#clip4)" clip-rule="nonzero">
<path style=" stroke:none;fill-rule:nonzero;fill:rgb(35.63385%,34.461975%,34.753418%);fill-opacity:1;" d="M 72.941406 32.464844 C 73.824219 32.464844 74.46875 32.359375 74.871094 32.144531 C 75.273438 31.929688 75.476562 31.585938 75.476562 31.109375 C 75.476562 30.636719 75.273438 30.285156 74.871094 30.058594 C 74.46875 29.828125 73.828125 29.714844 72.957031 29.714844 L 69.738281 29.714844 L 69.738281 32.464844 Z M 72.878906 28.0625 C 73.632812 28.0625 74.183594 27.960938 74.535156 27.761719 C 74.886719 27.5625 75.0625 27.253906 75.0625 26.835938 C 75.0625 26.4375 74.882812 26.152344 74.519531 25.976562 C 74.160156 25.800781 73.570312 25.710938 72.75 25.710938 L 69.738281 25.710938 L 69.738281 28.0625 Z M 67.332031 34.175781 L 67.332031 24.003906 L 72.863281 24.003906 C 75.976562 24.003906 77.53125 24.875 77.53125 26.625 C 77.53125 27.675781 76.914062 28.398438 75.683594 28.789062 C 77.203125 29.234375 77.964844 30.042969 77.964844 31.210938 C 77.964844 32.179688 77.550781 32.914062 76.726562 33.417969 C 75.902344 33.921875 74.699219 34.175781 73.117188 34.175781 L 67.332031 34.175781 "/>
</g>
<g clip-path="url(#clip5)" clip-rule="nonzero">
<path style=" stroke:none;fill-rule:nonzero;fill:rgb(35.63385%,34.461975%,34.753418%);fill-opacity:1;" d="M 90.011719 29.089844 C 90.011719 27.984375 89.667969 27.132812 88.976562 26.523438 C 88.285156 25.914062 87.3125 25.613281 86.058594 25.613281 C 84.816406 25.613281 83.847656 25.917969 83.160156 26.53125 C 82.46875 27.144531 82.121094 27.996094 82.121094 29.089844 C 82.121094 30.191406 82.46875 31.042969 83.160156 31.652344 C 83.847656 32.261719 84.820312 32.5625 86.074219 32.5625 C 87.320312 32.5625 88.285156 32.257812 88.976562 31.644531 C 89.667969 31.03125 90.011719 30.179688 90.011719 29.089844 Z M 92.65625 29.089844 C 92.65625 30.160156 92.394531 31.097656 91.867188 31.902344 C 91.34375 32.703125 90.582031 33.328125 89.589844 33.769531 C 88.597656 34.210938 87.414062 34.429688 86.042969 34.429688 C 84.726562 34.429688 83.574219 34.21875 82.59375 33.796875 C 81.609375 33.375 80.84375 32.761719 80.296875 31.957031 C 79.75 31.15625 79.476562 30.199219 79.476562 29.089844 C 79.476562 28.015625 79.738281 27.078125 80.265625 26.273438 C 80.792969 25.472656 81.550781 24.851562 82.542969 24.40625 C 83.539062 23.964844 84.71875 23.746094 86.089844 23.746094 C 87.410156 23.746094 88.558594 23.957031 89.542969 24.378906 C 90.523438 24.800781 91.289062 25.414062 91.835938 26.21875 C 92.386719 27.019531 92.65625 27.976562 92.65625 29.089844 "/>
</g>
<g clip-path="url(#clip6)" clip-rule="nonzero">
<path style=" stroke:none;fill-rule:nonzero;fill:rgb(35.63385%,34.461975%,34.753418%);fill-opacity:1;" d="M 97.648438 34.175781 L 97.648438 25.898438 L 93.183594 25.898438 L 93.183594 24.003906 L 104.660156 24.003906 L 104.660156 25.898438 L 100.195312 25.898438 L 100.195312 34.175781 L 97.648438 34.175781 "/>
</g>
<g clip-path="url(#clip7)" clip-rule="nonzero">
<path style=" stroke:none;fill-rule:nonzero;fill:rgb(35.63385%,34.461975%,34.753418%);fill-opacity:1;" d="M 114 26.867188 C 113.777344 26.382812 113.441406 26.03125 112.996094 25.820312 C 112.550781 25.605469 111.929688 25.496094 111.132812 25.496094 C 110.226562 25.496094 109.535156 25.597656 109.058594 25.796875 C 108.578125 25.996094 108.34375 26.285156 108.34375 26.667969 C 108.34375 27.027344 108.488281 27.292969 108.78125 27.464844 C 109.070312 27.636719 109.605469 27.773438 110.382812 27.878906 L 112.726562 28.203125 C 114.117188 28.402344 115.136719 28.753906 115.785156 29.25 C 116.433594 29.75 116.757812 30.4375 116.757812 31.308594 C 116.757812 32.296875 116.285156 33.066406 115.347656 33.609375 C 114.40625 34.15625 113.0625 34.429688 111.320312 34.429688 C 110.058594 34.429688 109.007812 34.296875 108.175781 34.03125 C 107.339844 33.765625 106.703125 33.363281 106.261719 32.820312 C 105.820312 32.277344 105.558594 31.589844 105.472656 30.753906 L 108.039062 30.753906 C 108.144531 31.417969 108.457031 31.90625 108.980469 32.214844 C 109.5 32.523438 110.28125 32.679688 111.320312 32.679688 C 112.257812 32.679688 112.960938 32.566406 113.433594 32.34375 C 113.90625 32.121094 114.144531 31.789062 114.144531 31.351562 C 114.144531 31.003906 113.984375 30.726562 113.671875 30.527344 C 113.359375 30.328125 112.863281 30.183594 112.183594 30.101562 L 110.269531 29.855469 C 108.71875 29.667969 107.585938 29.324219 106.867188 28.824219 C 106.148438 28.324219 105.789062 27.625 105.789062 26.722656 C 105.789062 26.117188 106.003906 25.589844 106.429688 25.140625 C 106.855469 24.695312 107.472656 24.351562 108.285156 24.109375 C 109.097656 23.867188 110.066406 23.746094 111.195312 23.746094 C 112.746094 23.746094 113.945312 23.976562 114.796875 24.4375 C 115.644531 24.898438 116.203125 25.621094 116.46875 26.609375 L 114 26.867188 "/>
</g>
<g clip-path="url(#clip8)" clip-rule="nonzero">
<path style=" stroke:none;fill-rule:nonzero;fill:rgb(35.63385%,34.461975%,34.753418%);fill-opacity:1;" d="M 129.125 34.175781 L 126.527344 26.9375 L 123.914062 34.175781 L 121.234375 34.175781 L 117.441406 24.003906 L 120.230469 24.003906 L 122.703125 31.511719 L 125.363281 24.058594 L 127.816406 24.058594 L 130.496094 31.523438 L 132.96875 24.003906 L 135.660156 24.003906 L 131.882812 34.175781 L 129.125 34.175781 "/>
</g>
<g clip-path="url(#clip9)" clip-rule="nonzero">
<path style=" stroke:none;fill-rule:nonzero;fill:rgb(35.63385%,34.461975%,34.753418%);fill-opacity:1;" d="M 141.429688 25.980469 L 139.421875 30.058594 L 143.4375 30.058594 Z M 145.429688 34.175781 L 144.300781 31.867188 L 138.5625 31.867188 L 137.445312 34.175781 L 134.816406 34.175781 L 140.027344 24.003906 L 142.910156 24.003906 L 148.125 34.175781 L 145.429688 34.175781 "/>
</g>
<g clip-path="url(#clip10)" clip-rule="nonzero">
<path style=" stroke:none;fill-rule:nonzero;fill:rgb(35.63385%,34.461975%,34.753418%);fill-opacity:1;" d="M 158.753906 34.175781 L 152.171875 27.066406 L 152.171875 34.175781 L 149.734375 34.175781 L 149.734375 24.003906 L 152.0625 24.003906 L 158.644531 31.109375 L 158.644531 24.003906 L 161.082031 24.003906 L 161.082031 34.175781 L 158.753906 34.175781 "/>
</g>
<g clip-path="url(#clip11)" clip-rule="nonzero">
<path style=" stroke:none;fill-rule:nonzero;fill:rgb(35.63385%,34.461975%,34.753418%);fill-opacity:1;" d="M 169.304688 25.980469 L 167.296875 30.058594 L 171.3125 30.058594 Z M 173.308594 34.175781 L 172.175781 31.867188 L 166.4375 31.867188 L 165.320312 34.175781 L 162.691406 34.175781 L 167.902344 24.003906 L 170.789062 24.003906 L 176 34.175781 L 173.308594 34.175781 "/>
</g>
<g clip-path="url(#clip12)" clip-rule="nonzero">
<path style=" stroke:none;fill-rule:nonzero;fill:rgb(31.047058%,70.297241%,91.236877%);fill-opacity:1;" d="M 14.019531 34.175781 C 13.859375 34.144531 13.703125 34.113281 13.546875 34.082031 C 12.738281 33.921875 12.027344 33.558594 11.386719 33.054688 C 11.160156 32.875 10.945312 32.679688 10.738281 32.476562 C 10.328125 32.082031 9.980469 31.636719 9.65625 31.171875 C 9.167969 30.472656 8.757812 29.726562 8.394531 28.957031 C 8.039062 28.214844 7.734375 27.453125 7.449219 26.679688 C 7.105469 25.746094 6.8125 24.796875 6.535156 23.839844 C 6.425781 23.460938 6.332031 23.078125 6.234375 22.695312 C 6.125 22.28125 6.015625 21.871094 5.917969 21.453125 C 5.773438 20.835938 5.640625 20.21875 5.507812 19.597656 C 5.398438 19.082031 5.289062 18.566406 5.191406 18.046875 C 5.101562 17.550781 5.015625 17.054688 4.949219 16.554688 C 4.914062 16.269531 4.902344 15.976562 4.914062 15.6875 C 4.925781 15.378906 4.976562 15.070312 5.164062 14.800781 C 5.289062 14.621094 5.464844 14.53125 5.683594 14.515625 C 6.054688 14.484375 6.410156 14.570312 6.757812 14.691406 C 7.503906 14.953125 8.214844 15.296875 8.9375 15.613281 C 9.449219 15.835938 9.964844 16.042969 10.476562 16.257812 C 10.78125 16.386719 11.089844 16.515625 11.398438 16.644531 C 11.890625 16.851562 12.382812 17.050781 12.875 17.257812 C 13.265625 17.421875 13.652344 17.585938 14.042969 17.75 C 14.511719 17.941406 14.976562 18.132812 15.445312 18.324219 C 15.789062 18.46875 16.128906 18.617188 16.472656 18.761719 C 16.925781 18.949219 17.378906 19.132812 17.828125 19.320312 C 18.550781 19.621094 19.273438 19.925781 19.996094 20.226562 C 20.53125 20.449219 21.066406 20.667969 21.597656 20.886719 C 22.132812 21.109375 22.664062 21.335938 23.199219 21.558594 C 23.738281 21.78125 24.277344 22.003906 24.816406 22.226562 C 25.265625 22.414062 25.71875 22.605469 26.167969 22.792969 C 26.230469 22.816406 26.292969 22.835938 26.355469 22.863281 C 26.414062 22.890625 26.472656 22.921875 26.554688 22.960938 C 26.492188 23.03125 26.453125 23.085938 26.402344 23.136719 C 25.761719 23.78125 25.113281 24.425781 24.472656 25.074219 C 23.542969 26.011719 22.617188 26.949219 21.695312 27.886719 C 20.898438 28.695312 20.101562 29.5 19.304688 30.308594 C 18.515625 31.109375 17.726562 31.90625 16.941406 32.707031 C 16.539062 33.117188 16.136719 33.523438 15.742188 33.9375 C 15.65625 34.027344 15.5625 34.078125 15.441406 34.09375 C 15.300781 34.113281 15.160156 34.148438 15.019531 34.175781 C 14.683594 34.175781 14.351562 34.175781 14.019531 34.175781 "/>
</g>
<path style=" stroke:none;fill-rule:nonzero;fill:rgb(31.047058%,70.297241%,91.236877%);fill-opacity:1;" d="M 1.269531 0 C 1.386719 0.0273438 1.503906 0.0546875 1.621094 0.0898438 C 1.984375 0.191406 2.351562 0.289062 2.710938 0.398438 C 3.074219 0.511719 3.4375 0.640625 3.800781 0.761719 C 4.355469 0.945312 4.90625 1.128906 5.460938 1.3125 C 6.199219 1.554688 6.9375 1.796875 7.675781 2.039062 C 8.417969 2.285156 9.164062 2.53125 9.90625 2.773438 C 10.597656 3 11.292969 3.21875 11.984375 3.445312 C 12.414062 3.585938 12.847656 3.730469 13.28125 3.875 C 13.324219 3.890625 13.367188 3.914062 13.429688 3.941406 C 13.386719 3.980469 13.363281 4.007812 13.332031 4.027344 C 12.757812 4.367188 12.183594 4.703125 11.609375 5.039062 C 10.957031 5.425781 10.308594 5.8125 9.660156 6.195312 C 8.675781 6.773438 7.695312 7.347656 6.710938 7.921875 C 6.105469 8.28125 5.496094 8.640625 4.890625 9 C 4.613281 9.160156 4.324219 9.292969 4.015625 9.363281 C 3.535156 9.472656 3.089844 9.378906 2.679688 9.105469 C 2.292969 8.847656 2.015625 8.488281 1.78125 8.097656 C 1.464844 7.574219 1.234375 7.015625 1.046875 6.4375 C 0.890625 5.953125 0.75 5.460938 0.628906 4.964844 C 0.472656 4.332031 0.328125 3.699219 0.195312 3.0625 C 0.125 2.722656 0.0742188 2.375 0.0390625 2.027344 C 0.0078125 1.726562 0.0078125 1.417969 0 1.113281 C -0.00390625 0.878906 0.046875 0.648438 0.15625 0.4375 C 0.25 0.246094 0.410156 0.121094 0.613281 0.046875 C 0.65625 0.03125 0.695312 0.015625 0.734375 0 C 0.914062 0 1.089844 0 1.269531 0 "/>
<path style=" stroke:none;fill-rule:nonzero;fill:rgb(35.63385%,34.461975%,34.753418%);fill-opacity:1;" d="M 8.726562 11.019531 C 9.027344 10.839844 9.296875 10.679688 9.5625 10.519531 C 10.363281 10.042969 11.164062 9.566406 11.96875 9.085938 C 12.898438 8.535156 13.832031 7.980469 14.765625 7.429688 C 15.273438 7.132812 15.78125 6.835938 16.296875 6.554688 C 16.667969 6.351562 17.058594 6.191406 17.476562 6.105469 C 18.132812 5.96875 18.722656 6.113281 19.253906 6.515625 C 19.660156 6.820312 20.011719 7.1875 20.335938 7.574219 C 21.007812 8.378906 21.671875 9.191406 22.339844 10.003906 C 23.230469 11.085938 24.121094 12.167969 25.011719 13.25 C 25.59375 13.960938 26.179688 14.675781 26.761719 15.390625 C 27.164062 15.878906 27.558594 16.375 27.976562 16.851562 C 28.140625 17.039062 28.128906 17.21875 28.070312 17.421875 C 27.96875 17.769531 27.710938 17.957031 27.375 18.050781 C 26.96875 18.167969 26.550781 18.160156 26.132812 18.113281 C 25.042969 17.992188 24 17.691406 22.96875 17.339844 C 22.097656 17.039062 21.230469 16.722656 20.375 16.378906 C 19.269531 15.933594 18.167969 15.464844 17.078125 14.980469 C 15.972656 14.492188 14.875 13.976562 13.78125 13.460938 C 12.71875 12.964844 11.660156 12.457031 10.605469 11.949219 C 10.039062 11.675781 9.480469 11.394531 8.917969 11.117188 C 8.863281 11.09375 8.8125 11.0625 8.726562 11.019531 "/>
</g>
</svg>

<svg xmlns="http://www.w3.org/2000/svg" width="176pt" height="45.907" viewBox="0 0 176 34.43"><defs><clipPath id="a"><path d="M29 24h15v10.43H29Zm0 0"/></clipPath><clipPath id="b"><path d="M44 24h4v10.43h-4Zm0 0"/></clipPath><clipPath id="c"><path d="M50 24h12v10.43H50Zm0 0"/></clipPath><clipPath id="d"><path d="M67 24h11v10.43H67Zm0 0"/></clipPath><clipPath id="e"><path d="M79 23h14v11.43H79Zm0 0"/></clipPath><clipPath id="f"><path d="M93 24h12v10.43H93Zm0 0"/></clipPath><clipPath id="g"><path d="M105 23h12v11.43h-12Zm0 0"/></clipPath><clipPath id="h"><path d="M117 24h19v10.43h-19Zm0 0"/></clipPath><clipPath id="i"><path d="M134 24h15v10.43h-15Zm0 0"/></clipPath><clipPath id="j"><path d="M149 24h13v10.43h-13Zm0 0"/></clipPath><clipPath id="k"><path d="M162 24h14v10.43h-14Zm0 0"/></clipPath><clipPath id="l"><path d="M4 14h23v20.43H4Zm0 0"/></clipPath></defs><g clip-path="url(#a)"><path d="m36.602 25.98-2.008 4.079h4.015Zm4 8.196-1.13-2.309h-5.738l-1.117 2.309h-2.629L35.2 24.004h2.887l5.21 10.172z" style="stroke:none;fill-rule:nonzero;fill:#4fb3e9;fill-opacity:1"/></g><g clip-path="url(#b)"><path d="M44.906 34.176V24.004h2.551v10.172z" style="stroke:none;fill-rule:nonzero;fill:#4fb3e9;fill-opacity:1"/></g><g clip-path="url(#c)"><path d="M55.664 28.617q1.26-.001 1.86-.347.597-.351.597-1.106-.002-.755-.566-1.082c-.38-.219-.996-.328-1.86-.328h-2.98v2.863Zm2.871 5.559-2.488-3.805h-3.332v3.805h-2.453V24.004h5.593q4.765 0 4.766 3.176 0 1.026-.531 1.707c-.36.457-.903.812-1.637 1.07l2.871 4.219z" style="stroke:none;fill-rule:nonzero;fill:#4fb3e9;fill-opacity:1"/></g><g clip-path="url(#d)"><path d="M72.941 32.465q1.326 0 1.93-.32.605-.322.606-1.036-.001-.71-.606-1.05c-.402-.23-1.043-.344-1.914-.344h-3.219v2.75Zm-.062-4.403q1.13 0 1.656-.3.528-.3.528-.926 0-.597-.543-.86-.54-.264-1.77-.265h-3.012v2.352Zm-5.547 6.114V24.004h5.531q4.67-.002 4.668 2.621-.001 1.576-1.847 2.164 2.28.669 2.28 2.422 0 1.452-1.237 2.207-1.237.757-3.61.758z" style="stroke:none;fill-rule:nonzero;fill:#5b5859;fill-opacity:1"/></g><g clip-path="url(#e)"><path d="M90.012 29.09c0-1.106-.344-1.957-1.035-2.567q-1.038-.912-2.918-.91-1.866 0-2.899.918-1.038.92-1.039 2.559.001 1.65 1.04 2.562c.687.61 1.66.91 2.913.91q1.867.001 2.903-.917 1.036-.92 1.035-2.555m2.644 0q.001 1.606-.789 2.812c-.523.801-1.285 1.426-2.277 1.868q-1.49.66-3.547.66c-1.316 0-2.469-.211-3.45-.633q-1.477-.633-2.296-1.84-.82-1.202-.82-2.867-.002-1.61.789-2.817.79-1.199 2.277-1.867 1.492-.66 3.547-.66 1.978 0 3.453.633 1.471.633 2.293 1.84c.55.8.82 1.758.82 2.87" style="stroke:none;fill-rule:nonzero;fill:#5b5859;fill-opacity:1"/></g><g clip-path="url(#f)"><path d="M97.648 34.176v-8.278h-4.464v-1.894h11.476v1.894h-4.465v8.278z" style="stroke:none;fill-rule:nonzero;fill:#5b5859;fill-opacity:1"/></g><g clip-path="url(#g)"><path d="M114 26.867c-.223-.484-.559-.836-1.004-1.047q-.668-.323-1.863-.324-1.36.002-2.074.3c-.48.2-.715.49-.715.872q-.001.54.437.797.435.257 1.602.414l2.344.324q2.085.3 3.058 1.047.973.751.973 2.059c0 .988-.473 1.757-1.41 2.3q-1.413.82-4.028.82c-1.261 0-2.312-.132-3.144-.398q-1.253-.397-1.914-1.21-.661-.814-.79-2.067h2.567q.158.997.941 1.46.78.465 2.34.466c.938 0 1.64-.114 2.114-.336q.709-.335.71-.992-.002-.523-.472-.825-.47-.3-1.488-.425l-1.914-.247q-2.326-.28-3.403-1.03-1.078-.75-1.078-2.102.001-.909.64-1.582.639-.669 1.856-1.032t2.91-.363q2.325 0 3.602.692 1.273.69 1.672 2.171z" style="stroke:none;fill-rule:nonzero;fill:#5b5859;fill-opacity:1"/></g><g clip-path="url(#h)"><path d="m129.125 34.176-2.598-7.239-2.613 7.239h-2.68l-3.793-10.172h2.79l2.472 7.508 2.66-7.453h2.453l2.68 7.464 2.473-7.52h2.691l-3.777 10.173z" style="stroke:none;fill-rule:nonzero;fill:#5b5859;fill-opacity:1"/></g><g clip-path="url(#i)"><path d="m141.43 25.98-2.008 4.079h4.016Zm4 8.196-1.13-2.309h-5.738l-1.117 2.309h-2.629l5.211-10.172h2.883l5.215 10.172z" style="stroke:none;fill-rule:nonzero;fill:#5b5859;fill-opacity:1"/></g><g clip-path="url(#j)"><path d="m158.754 34.176-6.582-7.11v7.11h-2.438V24.004h2.328l6.583 7.105v-7.105h2.437v10.172z" style="stroke:none;fill-rule:nonzero;fill:#5b5859;fill-opacity:1"/></g><g clip-path="url(#k)"><path d="m169.305 25.98-2.008 4.079h4.016Zm4.004 8.196-1.133-2.309h-5.738l-1.118 2.309h-2.629l5.211-10.172h2.887L176 34.176z" style="stroke:none;fill-rule:nonzero;fill:#5b5859;fill-opacity:1"/></g><g clip-path="url(#l)"><path d="m14.02 34.176-.473-.094c-.809-.16-1.52-.523-2.16-1.027a8.646 8.646 0 0 1-1.73-1.883c-.489-.7-.9-1.445-1.262-2.215a26 26 0 0 1-.946-2.277 42 42 0 0 1-.914-2.84c-.11-.38-.203-.762-.3-1.145-.11-.414-.22-.824-.317-1.242a98 98 0 0 1-.41-1.855c-.11-.516-.219-1.032-.317-1.551-.09-.496-.175-.992-.242-1.492-.035-.285-.047-.578-.035-.867.012-.31.063-.618.25-.887.125-.18.3-.27.52-.285.37-.032.726.054 1.074.175.746.262 1.457.606 2.18.922.511.223 1.027.43 1.539.645q.457.194.921.387c.493.207.985.406 1.477.613l1.168.492 1.402.574c.344.145.684.293 1.028.438.453.187.906.37 1.355.558.723.301 1.445.606 2.168.907q.803.332 1.602.66c.535.222 1.066.449 1.601.672l1.617.668q.677.282 1.352.566c.062.023.125.043.187.07.06.028.118.059.2.098-.063.07-.102.125-.153.176-.64.644-1.289 1.289-1.93 1.937q-1.394 1.406-2.777 2.813l-2.39 2.422q-1.185 1.198-2.364 2.398c-.402.41-.804.816-1.199 1.23a.48.48 0 0 1-.3.157c-.141.02-.282.054-.422.082z" style="stroke:none;fill-rule:nonzero;fill:#4fb3e9;fill-opacity:1"/></g><path d="M1.27 0a6 6 0 0 1 .351.09c.363.101.73.2 1.09.308.363.114.727.243 1.09.364l1.66.55 2.215.727c.742.246 1.488.492 2.23.734.692.227 1.387.446 2.078.672q.646.211 1.297.43c.043.016.086.04.149.066-.043.04-.067.067-.098.086q-.86.509-1.723 1.012-.977.582-1.949 1.156-1.474.866-2.95 1.727Q5.8 8.462 4.89 9c-.277.16-.566.293-.874.363-.48.11-.926.016-1.336-.258-.387-.257-.664-.617-.899-1.007a8 8 0 0 1-.734-1.66 21 21 0 0 1-.418-1.473Q.395 4.016.195 3.063.091 2.55.04 2.027c-.031-.3-.031-.609-.039-.914A1.4 1.4 0 0 1 .156.438.78.78 0 0 1 .613.046L.734 0z" style="stroke:none;fill-rule:nonzero;fill:#4fb3e9;fill-opacity:1"/><path d="M8.727 11.02c.3-.18.57-.34.835-.5l2.407-1.434c.93-.55 1.863-1.106 2.797-1.656a59 59 0 0 1 1.53-.875 4.2 4.2 0 0 1 1.18-.45c.657-.136 1.247.008 1.778.41.406.305.758.673 1.082 1.06.672.804 1.336 1.616 2.004 2.429l2.672 3.246q.875 1.067 1.75 2.14c.402.489.797.985 1.215 1.462.164.187.152.367.093.57-.101.348-.36.535-.695.629-.406.117-.824.11-1.242.062-1.09-.12-2.133-.422-3.164-.773a56 56 0 0 1-2.594-.961 102 102 0 0 1-3.297-1.399 148 148 0 0 1-3.297-1.52 296 296 0 0 1-3.176-1.51c-.566-.274-1.125-.555-1.687-.833-.055-.023-.105-.055-.191-.097" style="stroke:none;fill-rule:nonzero;fill:#5b5859;fill-opacity:1"/></svg>
